dist/svg/desktop-down.svg

<!-- Generated by Trend Micro Style Portal -->
<svg version="1.1" xmlns="http://www.w3.org/2000/svg" width="16" height="16" viewBox="0 0 16 16">
  <title>desktop-down</title>
  <path fill="rgb(34,34,34)" d="M14 7.41l1-1v4.59c0 0.552-0.448 1-1 1v0h-5v0.5l2.75 1.57c0.148 0.089 0.245 0.248 0.245 0.43 0 0.274-0.221 0.497-0.495 0.5h-7c-0.274-0.003-0.495-0.226-0.495-0.5 0-0.182 0.097-0.341 0.243-0.429l0.002-0.001 2.75-1.57v-0.5h-5c-0.552 0-1-0.448-1-1v0-9c0-0.552 0.448-1 1-1v0h8v2h-7v7h10v-1.59zM15 4h-2v-4h-2v4h-3l4 4 4-4z"></path>
</svg>

<svg width="16" height="16" viewBox="0 0 16 16" fill="rgb(34, 34, 34)" xmlns="http://www.w3.org/2000/svg"><title>desktop-down</title><path d="M14 7.41L15 6.41V11C15 11.552 14.552 12 14 12H9V12.5L11.75 14.07C11.898 14.159 11.995 14.318 11.995 14.5C11.995 14.774 11.774 14.997 11.5 15H4.5C4.226 14.997 4.005 14.774 4.005 14.5C4.005 14.318 4.102 14.159 4.248 14.071L4.25 14.07L7 12.5V12H2C1.448 12 1 11.552 1 11V2C1 1.448 1.448 1 2 1H10V3H3V10H13V8.41L14 7.41ZM15 4H13V0H11V4H8L12 8L16 4H15Z" fill="rgb(34, 34, 34)" fill-opacity="1.00"/></svg>
